public/images/bed.svg

<svg id="fi_2284001" enable-background="new 0 0 512 512" height="512" viewBox="0 0 512 512" width="512" xmlns="http://www.w3.org/2000/svg"><g><path d="m479.336 251.492v-160.926c0-39.144-31.846-70.989-70.989-70.989h-306.735c-39.144 0-70.989 31.846-70.989 70.989v163.002c-18.96 19.822-30.623 46.679-30.623 76.209v122.023c0 22.399 18.223 40.623 40.623 40.623 22.399 0 40.622-18.224 40.622-40.623v-12.602h349.511v12.602c0 22.399 18.223 40.623 40.622 40.623s40.622-18.223 40.622-40.623v-122.023c0-30.575-12.504-58.283-32.664-78.285zm-377.724-211.915h306.735c28.116 0 50.989 22.874 50.989 50.989v145.187c-6.125-3.771-12.643-6.961-19.479-9.491v-33.254c0-29.48-23.984-53.464-53.464-53.464h-86.928c-17.896 0-33.755 8.847-43.464 22.388-9.709-13.541-25.568-22.388-43.464-22.388h-86.928c-29.48 0-53.464 23.983-53.464 53.464v33.254c-7.601 2.813-14.81 6.441-21.521 10.777v-146.473c-.001-28.115 22.872-50.989 50.988-50.989zm8.721 179.867c-6.195 0-12.271.522-18.19 1.508v-27.944c0-18.452 15.012-33.464 33.464-33.464h86.928c18.452 0 33.464 15.012 33.464 33.464v26.437h-135.666zm155.667-26.437c0-18.452 15.012-33.464 33.464-33.464h86.928c18.452 0 33.464 15.012 33.464 33.464v27.944c-5.92-.986-11.995-1.508-18.19-1.508h-135.666zm-155.667 46.437h291.333c49.81 0 90.333 40.523 90.333 90.333v29.667h-100.296c-5.523 0-10 4.478-10 10s4.477 10 10 10h100.297v39.755h-472v-39.755h271.703c5.523 0 10-4.478 10-10s-4.477-10-10-10h-271.703v-29.667c0-49.81 40.523-90.333 90.333-90.333zm-49.088 212.356c0 11.371-9.251 20.623-20.622 20.623s-20.623-9.252-20.623-20.623v-12.602h41.245zm410.132 20.623c-11.371 0-20.622-9.252-20.622-20.623v-12.602h41.245v12.602c0 11.371-9.251 20.623-20.623 20.623z"></path><circle cx="341.698" cy="369.444" r="10.005"></circle></g></svg>

<svg xmlns="http://www.w3.org/2000/svg" width="512" height="512"><path d="M479.336 251.492V90.566c0-39.144-31.846-70.989-70.989-70.989H101.612c-39.144 0-70.989 31.846-70.989 70.989v163.002C11.663 273.39 0 300.247 0 329.777V451.8c0 22.399 18.223 40.623 40.623 40.623 22.399 0 40.622-18.224 40.622-40.623v-12.602h349.511V451.8c0 22.399 18.223 40.623 40.622 40.623S512 474.2 512 451.8V329.777c0-30.575-12.504-58.283-32.664-78.285zM101.612 39.577h306.735c28.116 0 50.989 22.874 50.989 50.989v145.187a109.936 109.936 0 0 0-19.479-9.491v-33.254c0-29.48-23.984-53.464-53.464-53.464h-86.928c-17.896 0-33.755 8.847-43.464 22.388-9.709-13.541-25.568-22.388-43.464-22.388h-86.928c-29.48 0-53.464 23.983-53.464 53.464v33.254a110.025 110.025 0 0 0-21.521 10.777V90.566c-.001-28.115 22.872-50.989 50.988-50.989zm8.721 179.867c-6.195 0-12.271.522-18.19 1.508v-27.944c0-18.452 15.012-33.464 33.464-33.464h86.928c18.452 0 33.464 15.012 33.464 33.464v26.437H110.333zM266 193.007c0-18.452 15.012-33.464 33.464-33.464h86.928c18.452 0 33.464 15.012 33.464 33.464v27.944a110.64 110.64 0 0 0-18.19-1.508H266zm-155.667 46.437h291.333c49.81 0 90.333 40.523 90.333 90.333v29.667H391.703c-5.523 0-10 4.478-10 10s4.477 10 10 10H492v39.755H20v-39.755h271.703c5.523 0 10-4.478 10-10s-4.477-10-10-10H20v-29.667c0-49.81 40.523-90.333 90.333-90.333zM61.245 451.8c0 11.371-9.251 20.623-20.622 20.623S20 463.171 20 451.8v-12.602h41.245zm410.132 20.623c-11.371 0-20.622-9.252-20.622-20.623v-12.602H492V451.8c0 11.371-9.251 20.623-20.623 20.623z"/><circle cx="341.698" cy="369.444" r="10.005"/></svg>
